resources/icons/20px/crop.svg

<svg width="20" height="20" viewBox="0 0 20 20" fill="none" xmlns="http://www.w3.org/2000/svg">
<path fill-rule="evenodd" clip-rule="evenodd" d="M14 19C14 19.5523 14.4477 20 15 20C15.5523 20 16 19.5523 16 19L16 16L19 16C19.5523 16 20 15.5523 20 15C20 14.4477 19.5523 14 19 14L6 14L6 0.999999C6 0.447713 5.55229 -1.26306e-06 5 -1.31134e-06C4.44772 -1.35962e-06 4 0.447712 4 0.999999L4 4L1 4C0.447717 4 1.35962e-06 4.44771 1.31134e-06 5C1.26306e-06 5.55228 0.447717 6 1 6L4 6L4 15C4 15.5523 4.44772 16 5 16L14 16L14 19ZM15 4L8 4L8 6L14 6L14 12L16 12L16 4.99999C16 4.44771 15.5523 4 15 4Z" fill="#5F6B7C"/>
<clipPath id="clip0_3729_28">
<rect width="20" height="20" fill="white"/>
</clipPath>
</svg>

<svg xmlns="http://www.w3.org/2000/svg" viewBox="0 0 20 20">
  <path d="M14 19a1 1 0 1 0 2 0v-3h3a1 1 0 1 0 0-2H6V1a1 1 0 1 0-2 0v3H1a1 1 0 1 0 0 2h3v9a1 1 0 0 0 1 1h9zm1-15H8v2h6v6h2V5a1 1 0 0 0-1-1"/>
</svg>
